_inc/systems/logos/pyxel.svg

<?xml version="1.0" encoding="utf-8"?>
<svg version="1.1" viewBox="0 0 250 79" id="svg272" xmlns="http://www.w3.org/2000/svg">
  <path d="M 26 13 L 13.5 13.02 C 13.167 13.02 13 13.187 13 13.52 L 13 25.46 C 13 25.793 13.167 25.96 13.5 25.96 L 26 26 L 25.97 39.5 C 25.964 39.833 25.797 40 25.47 40 L 13.5 40 C 13.224 40 13 40.224 13 40.5 L 13 65.5 C 13 65.833 12.834 66 12.5 66 L 0.5 66 C 0.167 66 0 65.833 0 65.5 L 0 0.5 C 0 0.167 0.167 0 0.5 0 L 25.28 0 C 25.727 0 25.954 0.223 25.96 0.67 L 26 13 Z" id="path190" style="fill: rgb(255, 255, 255);"/>
  <path d="M 237.46 53 L 249.54 53 C 249.794 53 250 53.206 250 53.46 L 250 65.54 C 250 65.794 249.794 66 249.54 66 L 210.46 66 C 210.206 66 210 65.794 210 65.54 L 210 53.46 C 210 53.206 210.206 53 210.46 53 L 223.54 53 C 223.794 53 224 52.794 224 52.54 L 224 13.46 C 224 13.206 223.794 13 223.54 13 L 210.46 13 C 210.206 13 210 12.794 210 12.54 L 210 0.46 C 210 0.206 210.206 0 210.46 0 L 236.54 0 C 236.794 0 237 0.206 237 0.46 L 237 52.54 C 237 52.794 237.206 53 237.46 53 Z" id="path192" style="fill: rgb(255, 255, 255);"/>
  <path d="M 26 13 L 38.5 13.04 C 38.834 13.04 39 13.207 39 13.54 L 39 25.48 C 39 25.813 38.834 25.98 38.5 25.98 L 26 26 L 26 13 Z" id="path196" style="fill: rgb(255, 255, 255);"/>
  <path d="M 66 40 L 52.48 39.96 C 52.16 39.953 52 39.79 52 39.47 L 52 13.5 C 52 13.167 52.167 13 52.5 13 L 65.46 13 C 65.8 13 65.97 13.17 65.97 13.51 L 66 40 Z" id="path198" style="fill: rgb(255, 255, 255);"/>
  <path d="M 66 40 L 78.34 39.96 C 78.78 39.953 79 39.73 79 39.29 L 79 13.75 C 79 13.25 79.25 13 79.75 13 L 91.25 13 C 91.75 13 92 13.25 92 13.75 L 92 65.59 C 92 65.812 91.823 65.994 91.6 66 L 79.5 66 C 79.167 66 79 65.833 79 65.5 L 79 53.5 C 79 53.167 78.834 53 78.5 53 L 66.51 53 C 66.184 53 66.017 52.833 66.01 52.5 L 66 40 Z" id="path200" style="fill: rgb(255, 255, 255);"/>
  <rect x="-6.5" y="-6.5" transform="matrix(0.999998, -0.001745, 0.001745, 0.999998, 111.500412, 19.499897)" width="13" height="13" rx="0.52" id="rect202" style="fill: rgb(255, 255, 255);"/>
  <rect x="-7" y="-6.5" transform="matrix(0.999998, 0.001745, -0.001745, 0.999998, 138.000412, 19.499897)" width="14" height="13" rx="0.65" id="rect204" style="fill: rgb(255, 255, 255);"/>
  <path d="M 184 40 L 183.99 26.49 C 183.984 26.163 183.817 26 183.49 26 L 171.75 26 C 171.25 26 171 25.75 171 25.25 L 171 13.75 C 171 13.25 171.25 13 171.75 13 L 196.5 13 C 196.834 13 197 13.167 197 13.5 L 197 39.28 C 197 39.727 196.777 39.95 196.33 39.95 L 184 40 Z" id="path206" style="fill: rgb(255, 255, 255);"/>
  <path d="M 131 53 L 118 53 L 118.01 26.51 C 118.01 26.17 118.177 26 118.51 26 L 130.49 26 C 130.824 26 130.99 26.167 130.99 26.5 L 131 53 Z" id="path208" style="fill: rgb(255, 255, 255);"/>
  <path d="M 184 40 L 184.01 52.5 C 184.01 52.833 184.177 53 184.51 53 L 196.5 53 C 196.777 53 197 53.224 197 53.5 L 197 65.5 C 197 65.833 196.834 66 196.5 66 L 171.75 66 C 171.25 66 171 65.75 171 65.25 L 171 53.5 C 171 53.167 170.834 53 170.5 53 L 158.5 53 C 158.167 53 158 52.833 158 52.5 L 158 26.5 C 158 26.224 158.224 26 158.5 26 L 170.5 26 C 170.834 26 171 26.167 171 26.5 L 171 39.47 C 171 39.797 171.164 39.96 171.49 39.96 L 184 40 Z" id="path210" style="fill: rgb(255, 255, 255);"/>
  <path d="M 118 53 L 117.96 65.5 C 117.96 65.833 117.794 66 117.46 66 L 105.5 66 C 105.167 66 105 65.833 105 65.5 L 105 53.54 C 105 53.207 105.167 53.04 105.5 53.04 L 118 53 Z" id="path212" style="fill: rgb(255, 255, 255);"/>
  <path d="M 131 53 L 144.5 53.04 C 144.834 53.04 145 53.207 145 53.54 L 145 65.37 C 145 65.79 144.79 66 144.37 66 L 131.54 66 C 131.207 66 131.04 65.833 131.04 65.5 L 131 53 Z" id="path214" style="fill: rgb(255, 255, 255);"/>
  <rect x="-6.5" y="-6.5" transform="matrix(0.999998, -0.001745, 0.001745, 0.999998, 72.500412, 72.499901)" width="13" height="13" rx="0.31" id="rect220" style="fill: rgb(255, 255, 255);"/>
</svg>

<svg xmlns="http://www.w3.org/2000/svg" viewBox="0 0 250 79"><path d="m26 13-12.5.02q-.5 0-.5.5v11.94q0 .5.5.5L26 26l-.03 13.5q0 .5-.5.5H13.5a.5.5 0 0 0-.5.5v25q0 .5-.5.5H.5q-.5 0-.5-.5V.5Q0 0 .5 0h24.78q.67 0 .68.67zm211.46 40h12.08c.25 0 .46.2.46.46v12.08c0 .25-.2.46-.46.46h-39.08a.46.46 0 0 1-.46-.46V53.46c0-.25.2-.46.46-.46h13.08c.25 0 .46-.2.46-.46V13.46c0-.25-.2-.46-.46-.46h-13.08a.46.46 0 0 1-.46-.46V.46c0-.25.2-.46.46-.46h26.08c.25 0 .46.2.46.46v52.08c0 .25.2.46.46.46M26 13l12.5.04q.5 0 .5.5v11.94q0 .5-.5.5L26 26zm40 27-13.52-.04q-.48 0-.48-.49V13.5q0-.5.5-.5h12.96q.51 0 .51.51zm0 0 12.34-.04q.66 0 .66-.67V13.75q0-.75.75-.75h11.5q.75 0 .75.75v51.84c0 .22-.18.4-.4.41H79.5q-.5 0-.5-.5v-12q0-.5-.5-.5H66.51q-.5 0-.5-.5z" style="fill:#fff"/><rect width="13" height="13" x="-6.5" y="-6.5" rx=".52" style="fill:#fff" transform="rotate(-.1 11230.46 -63887.26)"/><rect width="14" height="13" x="-7" y="-6.5" rx=".65" style="fill:#fff" transform="rotate(.1 -11105.71 79092.98)"/><path d="m184 40-.01-13.51q0-.5-.5-.49h-11.74q-.75 0-.75-.75v-11.5q0-.75.75-.75h24.75q.5 0 .5.5v25.78q0 .67-.67.67zm-53 13h-13l.01-26.49q0-.51.5-.51h11.98q.5 0 .5.5z" style="fill:#fff"/><path d="m184 40 .01 12.5q0 .5.5.5h11.99c.28 0 .5.22.5.5v12q0 .5-.5.5h-24.75q-.75 0-.75-.75V53.5q0-.5-.5-.5h-12q-.5 0-.5-.5v-26c0-.28.22-.5.5-.5h12q.5 0 .5.5v12.97q0 .5.49.49zm-66 13-.04 12.5q0 .5-.5.5H105.5q-.5 0-.5-.5V53.54q0-.5.5-.5zm13 0 13.5.04q.5 0 .5.5v11.83q0 .63-.63.63h-12.83q-.5 0-.5-.5z" style="fill:#fff"/><rect width="13" height="13" x="-6.5" y="-6.5" rx=".31" style="fill:#fff" transform="rotate(-.1 41583.42 -41511.21)"/></svg>
